X:121
T: Rabbit, The
M: 9/8
L: 1/8
R: slip jig
K:Dmaj
|: A2 F FED E2 F | D2 F FED EFG | A2 F FED E2 F | D2 F E2 F D3 :|
|: A2 F FED EFA | B3 BAB d2 e | fed edc dBA | B/c/dB AFD EFG :|
